X: 1
T: Kit O'Mahoney's
S: Patrick Ourceau
R: reel
F: http://www.thesession.org/recordings/display/209
M: C|
L: 1/8
K: G
GA |\
~B3c ABAG | FGAB cAFA | DBBd cAFA | D2G2 G2GA |
B2Bc ABAG | FGAB cAFA | ~f3d ecFD |1 D2G2 G2GA :|2 D2G2 ||
|: GD |\
GABc d2g2 | defd cAFA | GABc d2ef | gagf d2ef |
gBdg fAAd | efed (3Bcd eg | fafd ecAF |1 D2G2 G2 :|2 D2G2 G2 |]
